packages/bezier-icons/icons/signal.svg

<svg width="24" height="24" viewBox="0 0 24 24" fill="none" xmlns="http://www.w3.org/2000/svg">
<path fill-rule="evenodd" clip-rule="evenodd" d="M6.34315 17.6568C3.21895 14.5326 3.21895 9.46729 6.34315 6.34309C6.73367 5.95257 6.73367 5.3194 6.34315 4.92888C5.95262 4.53836 5.31946 4.53836 4.92893 4.92888C1.02369 8.83412 1.02369 15.1658 4.92893 19.071C5.31946 19.4615 5.95262 19.4615 6.34315 19.071C6.73367 18.6805 6.73367 18.0473 6.34315 17.6568ZM19.0711 4.92888C18.6805 4.53836 18.0474 4.53836 17.6569 4.92888C17.2663 5.3194 17.2663 5.95257 17.6569 6.34309C20.781 9.46729 20.781 14.5326 17.6569 17.6568C17.2663 18.0473 17.2663 18.6805 17.6569 19.071C18.0474 19.4615 18.6805 19.4615 19.0711 19.071C22.9763 15.1658 22.9763 8.83412 19.0711 4.92888ZM9.17156 9.17152C7.60947 10.7336 7.60947 13.2663 9.17156 14.8284C9.56209 15.2189 9.56209 15.8521 9.17156 16.2426C8.78104 16.6331 8.14787 16.6331 7.75735 16.2426C5.4142 13.8994 5.4142 10.1005 7.75735 7.75731C8.14787 7.36678 8.78104 7.36678 9.17156 7.75731C9.56209 8.14783 9.56209 8.781 9.17156 9.17152ZM14.8284 7.75731C15.2189 7.36678 15.8521 7.36678 16.2426 7.75731C18.5858 10.1005 18.5858 13.8994 16.2426 16.2426C15.8521 16.6331 15.2189 16.6331 14.8284 16.2426C14.4379 15.8521 14.4379 15.2189 14.8284 14.8284C16.3905 13.2663 16.3905 10.7336 14.8284 9.17152C14.4379 8.781 14.4379 8.14783 14.8284 7.75731ZM14 11.9999C14 13.1045 13.1046 13.9999 12 13.9999C10.8954 13.9999 10 13.1045 10 11.9999C10 10.8954 10.8954 9.99995 12 9.99995C13.1046 9.99995 14 10.8954 14 11.9999Z" fill="#313234"/>
</svg>

<svg xmlns="http://www.w3.org/2000/svg" width="24" height="24" fill="none" viewBox="0 0 24 24"><path fill="#313234" fill-rule="evenodd" d="M6.343 17.657a8 8 0 0 1 0-11.314A1 1 0 0 0 4.93 4.93c-3.905 3.905-3.905 10.237 0 14.142a1 1 0 0 0 1.414-1.414M19.071 4.929a1 1 0 1 0-1.414 1.414 8 8 0 0 1 0 11.314 1 1 0 1 0 1.414 1.414c3.905-3.905 3.905-10.237 0-14.142m-9.9 4.243a4 4 0 0 0 0 5.656 1 1 0 1 1-1.414 1.415 6 6 0 0 1 0-8.486 1 1 0 1 1 1.415 1.415m5.657-1.415a1 1 0 0 1 1.415 0 6 6 0 0 1 0 8.486 1 1 0 0 1-1.415-1.415 4 4 0 0 0 0-5.656 1 1 0 0 1 0-1.415M14 12a2 2 0 1 1-4 0 2 2 0 0 1 4 0" clip-rule="evenodd"/></svg>
